assets/img/logo.svg

<svg width="91" height="25" viewBox="0 0 91 25" fill="none" xmlns="http://www.w3.org/2000/svg">
<path d="M26.7656 6.76953H22.4883V10.6836H27.3633V11H22.1719V2.46875H27.3633V2.78516H22.4883V6.45312H26.7656V6.76953ZM29.1239 11V2.46875H31.4852C32.1454 2.46875 32.743 2.625 33.2782 2.9375C33.8134 3.25 34.2333 3.68945 34.538 4.25586C34.8427 4.81836 34.9989 5.44922 35.0067 6.14844V7.25586C35.0067 7.9668 34.8563 8.60742 34.5555 9.17773C34.2587 9.74805 33.8427 10.1934 33.3075 10.5137C32.7723 10.834 32.1747 10.9961 31.5145 11H29.1239ZM29.4403 2.78516V10.6836H31.4852C32.0829 10.6836 32.6259 10.5391 33.1141 10.25C33.6063 9.95703 33.9911 9.55078 34.2684 9.03125C34.5458 8.50781 34.6864 7.92773 34.6903 7.29102V6.19531C34.6903 5.55859 34.5536 4.98047 34.2802 4.46094C34.0106 3.94141 33.6317 3.53516 33.1434 3.24219C32.6591 2.94531 32.122 2.79297 31.5321 2.78516H29.4403ZM38.7888 10.4727L39.1755 9.06641L41.1912 2.46875H41.5427L43.5466 9.06641L43.9275 10.4727L44.3259 9.06641L46.0837 2.46875H46.4295L44.1326 11H43.7752L41.6599 3.88672L41.3611 2.98438L41.074 3.88672L38.9412 11H38.5837L36.281 2.46875H36.6326L38.4021 9.06641L38.7888 10.4727ZM52.3268 8.45117H48.1491L47.1998 11H46.8541L50.0475 2.46875H50.4342L53.6276 11H53.2819L52.3268 8.45117ZM48.2663 8.13477H52.2096L50.2409 2.84961L48.2663 8.13477ZM58.3706 7.34961H55.4116V11H55.0952V2.46875H57.814C58.6695 2.46875 59.3491 2.68945 59.853 3.13086C60.3609 3.57227 60.6148 4.17188 60.6148 4.92969C60.6148 5.51172 60.4331 6.02148 60.0698 6.45898C59.7105 6.89258 59.2515 7.16211 58.6929 7.26758L60.9722 10.918V11H60.6382L58.3706 7.34961ZM55.4116 7.0332H58.1011C58.7573 7.0332 59.2866 6.83398 59.689 6.43555C60.0952 6.03711 60.2984 5.53516 60.2984 4.92969C60.2984 4.26562 60.0737 3.74219 59.6245 3.35938C59.1792 2.97656 58.5679 2.78516 57.7905 2.78516H55.4116V7.0332ZM63.0961 11V2.46875H65.4574C66.1176 2.46875 66.7152 2.625 67.2504 2.9375C67.7855 3.25 68.2055 3.68945 68.5102 4.25586C68.8148 4.81836 68.9711 5.44922 68.9789 6.14844V7.25586C68.9789 7.9668 68.8285 8.60742 68.5277 9.17773C68.2309 9.74805 67.8148 10.1934 67.2797 10.5137C66.7445 10.834 66.1469 10.9961 65.4867 11H63.0961ZM63.4125 2.78516V10.6836H65.4574C66.0551 10.6836 66.598 10.5391 67.0863 10.25C67.5785 9.95703 67.9633 9.55078 68.2406 9.03125C68.518 8.50781 68.6586 7.92773 68.6625 7.29102V6.19531C68.6625 5.55859 68.5258 4.98047 68.2523 4.46094C67.9828 3.94141 67.6039 3.53516 67.1156 3.24219C66.6312 2.94531 66.0941 2.79297 65.5043 2.78516H63.4125Z" fill="white"/>
<path d="M26.7217 19.876H23.2402L22.4492 22H22.1611L24.8223 14.8906H25.1445L27.8057 22H27.5176L26.7217 19.876ZM23.3379 19.6123H26.624L24.9834 15.208L23.3379 19.6123ZM31.8582 18.958H29.3924V22H29.1287V14.8906H31.3943C32.1072 14.8906 32.6736 15.0745 33.0936 15.4424C33.5167 15.8102 33.7283 16.3099 33.7283 16.9414C33.7283 17.4264 33.577 17.8512 33.2742 18.2158C32.9747 18.5771 32.5923 18.8018 32.1268 18.8896L34.0262 21.9316V22H33.7479L31.8582 18.958ZM29.3924 18.6943H31.6336C32.1805 18.6943 32.6215 18.5283 32.9568 18.1963C33.2954 17.8643 33.4646 17.446 33.4646 16.9414C33.4646 16.388 33.2775 15.9518 32.9031 15.6328C32.532 15.3138 32.0226 15.1543 31.3748 15.1543H29.3924V18.6943ZM39.7242 18.4746H36.1598V21.7363H40.2223V22H35.8961V14.8906H40.2223V15.1543H36.1598V18.2109H39.7242V18.4746ZM46.6234 19.8223C46.5551 20.5547 46.3028 21.1178 45.8666 21.5117C45.4304 21.9023 44.838 22.0977 44.0893 22.0977C43.5847 22.0977 43.1371 21.9707 42.7465 21.7168C42.3591 21.4596 42.058 21.0967 41.8432 20.6279C41.6283 20.1559 41.5193 19.6172 41.516 19.0117V17.9131C41.516 17.3076 41.6218 16.7673 41.8334 16.292C42.045 15.8135 42.3461 15.444 42.7367 15.1836C43.1306 14.9232 43.5814 14.793 44.0893 14.793C44.8314 14.793 45.4223 14.9883 45.8617 15.3789C46.3012 15.7695 46.5551 16.3294 46.6234 17.0586H46.3598C46.2849 16.4043 46.057 15.9079 45.6762 15.5693C45.2953 15.2275 44.7663 15.0566 44.0893 15.0566C43.3992 15.0566 42.8409 15.3171 42.4145 15.8379C41.9913 16.3587 41.7797 17.057 41.7797 17.9326V18.9775C41.7797 19.5374 41.8741 20.0339 42.0629 20.4668C42.2517 20.8965 42.5219 21.2318 42.8734 21.4727C43.2283 21.7135 43.6335 21.834 44.0893 21.834C44.7696 21.834 45.3002 21.6663 45.6811 21.3311C46.0652 20.9958 46.2914 20.4928 46.3598 19.8223H46.6234ZM53.5422 22H53.2785V18.4746H48.7375V22H48.4738V14.8906H48.7375V18.2109H53.2785V14.8906H53.5422V22ZM57.1064 21.5605L57.4287 20.3887L59.1084 14.8906H59.4014L61.0713 20.3887L61.3887 21.5605L61.7207 20.3887L63.1855 14.8906H63.4736L61.5596 22H61.2617L59.499 16.0723L59.25 15.3203L59.0107 16.0723L57.2334 22H56.9355L55.0166 14.8906H55.3096L56.7842 20.3887L57.1064 21.5605ZM68.4881 19.876H65.0066L64.2156 22H63.9275L66.5887 14.8906H66.9109L69.5721 22H69.284L68.4881 19.876ZM65.1043 19.6123H68.3904L66.7498 15.208L65.1043 19.6123Z" fill="white"/>
<line x1="0.823223" y1="11.8232" x2="10.8232" y2="1.82322" stroke="white" stroke-width="0.5"/>
<line y1="-0.25" x2="14.1421" y2="-0.25" transform="matrix(-0.707107 -0.707107 -0.707107 0.707107 11 22)" stroke="white" stroke-width="0.5"/>
<line x1="90.1768" y1="12.1768" x2="80.1768" y2="22.1768" stroke="white" stroke-width="0.5"/>
<line y1="-0.25" x2="14.1421" y2="-0.25" transform="matrix(0.707107 0.707107 0.707107 -0.707107 80 2)" stroke="white" stroke-width="0.5"/>
</svg>

<svg width="91" height="25" fill="none" xmlns="http://www.w3.org/2000/svg"><path d="M26.766 6.77h-4.278v3.914h4.875V11h-5.191V2.469h5.191v.316h-4.875v3.668h4.278v.317zM29.124 11V2.469h2.361c.66 0 1.258.156 1.793.469a3.3 3.3 0 011.26 1.318c.305.562.46 1.193.469 1.892v1.108c0 .71-.15 1.351-.451 1.922a3.295 3.295 0 01-1.248 1.336 3.465 3.465 0 01-1.793.486h-2.391zm.316-8.215v7.899h2.045c.598 0 1.14-.145 1.63-.434a3.07 3.07 0 001.153-1.219 3.708 3.708 0 00.422-1.74V6.195c0-.636-.136-1.215-.41-1.734a3.003 3.003 0 00-1.137-1.219 3.104 3.104 0 00-1.61-.457H29.44zm9.349 7.688l.386-1.407 2.016-6.597h.352l2.004 6.597.38 1.407.399-1.407 1.758-6.597h.345L44.133 11h-.358L41.66 3.887l-.299-.903-.287.903L38.941 11h-.357L36.28 2.469h.352l1.77 6.597.386 1.407zM52.327 8.45h-4.178L47.2 11h-.345l3.194-8.531h.386L53.628 11h-.346l-.955-2.549zm-4.06-.316h3.943L50.24 2.85l-1.974 5.285zM58.37 7.35h-2.96V11h-.316V2.469h2.719c.855 0 1.535.22 2.039.662.508.441.762 1.04.762 1.799 0 .582-.182 1.091-.545 1.529-.36.434-.819.703-1.377.809l2.28 3.65V11h-.335L58.37 7.35zm-2.96-.317h2.69c.656 0 1.186-.199 1.588-.597.406-.399.61-.9.61-1.506 0-.664-.225-1.188-.675-1.57-.445-.383-1.056-.575-1.834-.575h-2.378v4.248zM63.097 11V2.469h2.361c.66 0 1.258.156 1.793.469.535.312.956.751 1.26 1.318.305.562.461 1.193.469 1.892v1.108c0 .71-.15 1.351-.451 1.922a3.295 3.295 0 01-1.248 1.336 3.465 3.465 0 01-1.793.486h-2.39zm.317-8.215v7.899h2.044c.598 0 1.141-.145 1.63-.434a3.07 3.07 0 001.154-1.219 3.708 3.708 0 00.421-1.74V6.195c0-.636-.136-1.215-.41-1.734a3.002 3.002 0 00-1.136-1.219 3.104 3.104 0 00-1.612-.457h-2.092zM26.722 19.876H23.24L22.45 22h-.289l2.661-7.11h.323l2.66 7.11h-.287l-.796-2.124zm-3.384-.264h3.286l-1.64-4.404-1.646 4.404zm8.52-.654h-2.466V22h-.263v-7.11h2.265c.713 0 1.28.184 1.7.552.423.368.634.868.634 1.5 0 .484-.151.91-.454 1.274a1.91 1.91 0 01-1.147.674l1.9 3.042V22h-.28l-1.889-3.042zm-2.466-.264h2.242c.547 0 .987-.166 1.323-.498.338-.332.508-.75.508-1.255 0-.553-.188-.99-.562-1.308-.371-.32-.88-.479-1.528-.479h-1.983v3.54zm10.332-.22H36.16v3.262h4.062V22h-4.326v-7.11h4.326v.264H36.16v3.057h3.564v.264zm6.9 1.348c-.069.733-.321 1.296-.757 1.69-.437.39-1.029.586-1.778.586-.504 0-.952-.127-1.343-.381a2.539 2.539 0 01-.903-1.09c-.215-.471-.324-1.01-.327-1.615v-1.099c0-.605.106-1.146.317-1.621.212-.479.513-.848.904-1.108.394-.26.844-.391 1.352-.391.742 0 1.333.195 1.773.586.44.39.693.95.761 1.68h-.263c-.075-.655-.303-1.151-.684-1.49-.38-.342-.91-.512-1.587-.512-.69 0-1.248.26-1.675.78-.423.522-.634 1.22-.634 2.096v1.044c0 .56.094 1.057.283 1.49.189.43.459.765.81 1.006.355.24.76.361 1.216.361.68 0 1.211-.168 1.592-.503.384-.335.61-.838.679-1.509h.263zM53.541 22h-.264v-3.525h-4.54V22h-.264v-7.11h.264v3.32h4.54v-3.32h.264V22zm3.564-.44l.323-1.171 1.68-5.498h.292l1.67 5.498.318 1.172.332-1.172 1.465-5.498h.288L61.56 22h-.298l-1.763-5.928-.249-.752-.24.752L57.234 22h-.297l-1.92-7.11h.294l1.474 5.499.322 1.172zm11.382-1.684h-3.481L64.216 22h-.288l2.66-7.11h.323L69.572 22h-.288l-.796-2.124zm-3.384-.264h3.286l-1.64-4.404-1.646 4.404z" fill="#fff"/><path stroke="#fff" stroke-width=".5" d="M.823 11.823l10-10m.354 20l-10-10m89 .354l-10 10m-.354-20l10 10"/></svg>
